X: 27643
T: Mopac Crawl
R: polka
M: 2/4
K: Bminor
BB/B/ AF|BB/B/ AF|D2EF|EDB,2|
BB/B/ AF|BB/B/ AF|D2EF|ED FA:|
|:BA Bc|de f2|ec Ac|ec Ac|
BA Bc|de f2|dc/c/ BA|FB BA:|

